lib/assets/icons/svg/outlined-action-search.svg

<svg xmlns="http://www.w3.org/2000/svg" viewBox="0 0 24 24"><path d="M9.912 17.56c-5.774 0-9.382-6.25-6.495-11.25 2.887-5 10.103-5 12.99 0a7.486 7.486 0 0 1-.787 8.609l5.832 5.671a.49.49 0 0 1 0 .7.507.507 0 0 1-.71.01l-5.823-5.662a7.481 7.481 0 0 1-5.007 1.922zm0-14c-5.004 0-8.131 5.417-5.629 9.75 2.209 3.825 7.341 4.273 10.235 1.346a.556.556 0 0 1 .111-.115 6.65 6.65 0 0 0 .912-1.231 6.5 6.5 0 0 0-5.629-9.75z"/></svg>

<svg viewBox="0 0 24 24" xmlns="http://www.w3.org/2000/svg">
  <path  d="M 9.912 17.56 C 4.138 17.56 0.53 11.31 3.417 6.31 C 6.304 1.31 13.52 1.31 16.407 6.31 C 17.065 7.45 17.412 8.743 17.412 10.06 C 17.409 11.914 16.735 13.61 15.62 14.919 L 21.452 20.59 C 21.648 20.782 21.648 21.098 21.452 21.29 C 21.357 21.386 21.227 21.44 21.092 21.44 C 20.961 21.442 20.835 21.391 20.742 21.3 L 14.919 15.638 C 13.592 16.831 11.837 17.557 9.912 17.56 Z M 9.912 3.56 C 4.908 3.56 1.781 8.977 4.283 13.31 C 6.492 17.135 11.624 17.583 14.518 14.656 C 14.534 14.633 14.552 14.611 14.572 14.59 C 14.59 14.572 14.609 14.555 14.629 14.541 C 14.969 14.179 15.276 13.769 15.541 13.31 C 16.112 12.322 16.412 11.201 16.412 10.06 C 16.412 6.47 13.502 3.56 9.912 3.56 Z"/>
</svg>
